X:167
T:Tom Edwards
M:6/8
L:1/8
Q:120
C:Trad.
R:Jig
K:G
DFA | d3 c3 | B3 A3 | G2 B AGF | G2 B AGF | GFG AGA |B
AB ^cBc|d2 G F2 E|D3:||:D3|DEF E2G|FGA E3|EFG FGA|AB=c B2 A | GFG AG
A | BAB ^cBc | d2 G F2 E | D3 :||
